X: 10
T: No_107_Song_of_the_Watchers_(b).krn
N: Derived from No_107_Song_of_the_Watchers_(b).krn
%%abc-version 2.0
%%abcx-abcm2ps-target-version 5.9.1 (29 Sep 2008)
%%abc-creator hum2abc beta
%%abcx-conversion-date 2019/03/15 08:37:56
%%humdrum-veritas 1120542644
%%humdrum-veritas-data 2214792294
%%linebreak <none>
%%barnumbers 0
L: 1/8
M: 2/4
K: Bb clef=bass
[K:clef=bass][M:2/4]F,2F,3/F,/ | 
F,2D2 ||  
[M:3/4](D3/B,/)B,2(D3/C/) | 
(C2B,2)G,3/F,/ ||  
[M:2/4]F,3/D,/ D, z | 
G,3/F,/F,2 | 
G,7/F,/ | 
F,2z2 ]|:  
[M:3/4]D2-D3/C/C2 | 
B,2D2(C3/B,/) | 
(B,3/F,/) F, zG,2 ||  
[M:2/4]F,3/D,/D,2 ||  
[M:3/4]F,3/F,/F,2F,2 | 
F,6 :|]  



